X:1
T:Title
%%score ( 1 2 ) { 3 | 4 }
L:1/8
Q:1/4=100
M:4/4
K:G
V:1 treble nm="Grand Piano, Soprano"
V:2 treble 
V:3 bass nm="Choir Pad, Just as He Promised To Do"
V:4 bass 
V:1
 [B,D]2 [DB]2- [DB][^C_B][D=B][DG] | [CE][CG] [B,D]6 | [B,D]2 [Gd]2- [Gd][DG][DF][DG] | %3
w: By~Charles~Hutchinson~Gabriel * * * * *|||
 [Dc][DB] [DB]2 [DA]4 | D2 [DB]2- [DB][^C_B][D=B][DG] | [CE][CG] [B,D]6 | %6
w: |||
 [B,D]2 [DG]2- [DG][DA][DB][DG] | [Dc][DB] [DA]2 [DG]4 | z2 [Fd]2 [Ec][CE][DF][DB]- | %9
w: |||
 [DB]2 [CA][B,G]- [B,G][CE] [B,D]2- | [B,D][B,D] [DG]2- [DG][DA][DB][Ge] | [Gd][GB] [FA]6 | %12
w: |||
 .B2 z2 z4 | z8 | [Ge][Ge] [Gd]2- [Gd]G [GB]2 | [DA]2 [DG]6- | [DG]2 z2 z4 |] %17
w: |||||
V:2
 x8 | x8 | x8 | x8 | x8 | x8 | x8 | x8 | x8 | x8 | x8 | x8 | G-[Gc] [Gd]2- [Gd][DB][Ec][DB]- | %13
 [DB]2 [DA][DA] [DB]2 [Cc]2 | x8 | x8 | x8 |] %17
V:3
 G,2 G,2- G,G,G,G, | G,G, G,6 | G,2 B,2- B,B,CB, | A,G, G,2 F,4 | F,2 G,2- G,G,G,G, | G,G, G,6 | %6
 G,2 G,2- G,F,G,B, | A,G, C2 B,4 | z2 A,2 F,F,A,F,- | F,2 G,G,- G,G, G,2- | %10
 G,G, G,2- G,F,G,[K:treble]C | B,D D6 | D[K:bass]A, B,2- B,G,G,G,- | G,2 A,A, G,2 G,2 | %14
 CC B,2- B,B, D2 | C2 B,6- | B,2 z2 z4 |] %17
V:4
 G,,2 G,,2- G,,G,,G,,B,, | B,,E, z2 z4 | z2 G,2- G,G,A,G, | .F,2 D,2 D,4 | D,2 G,,2- G,,G,,G,,B,, | %5
 C,E, z2 z4 | z2 B,,2- B,,D, z G, | .F,2 D,2 G,,4 | z2 D,2 D,D,D,D,- | D,2 G,,G,,- G,,G,, G,,2- | %10
 G,,G,, B,,2- B,,D, z G, | G,G, D,6 | G,2 G,4 z2 | z2 F,F, =F,2 E,2 | C,C, D,2- D,D, D,2 | %15
 D,2 G,,6- | G,,2 z2 z4 |] %17

